X: 1
T: Ya'ase shalom  [Dm]
O: Israel
M: 2/4
L: 1/8
K: Dm
(DA) \
| "Dm"A2 A2 A2 [AG][AF] | A6 z2 | "Gm"B2 B2 Bd cB | "Dm"A4 A3 A |
w: O-*se sha-lom bim-ro-mav hu' ya'a-se sha-lom al-ey-nu v\-
| "A7"G2 G2 cB AG | "Dm"F6  EF | "Gm"G6 A2 | "Dm"F2 "A7"E2 "Dm"D4 \
!Segno!|: "F"Ac BA "C"G4 |
w: 'al kol yis-*ra-*el ve 'im-ru 'im-ru 'a-men. Ya-'a-se sha-lom
| "(Gm)"GB AG "Dm"F4 | FA GF "A7"E2 EE |1 AG FG "Dm"A4 :|2 "A7"AG FE "Dm"HD4 |]
w: ya-'a-se sha-lom sha-*lom 'al-ey-nu v-'al kol yis-ra-el. 'al kol yis-ra-el.
[| "Dm"Ad dc d4 | "Am"Ac cB A4 | "Dm"Ad dc d2 cd | "Am"ed cB "Dm"A4 !d.S.!y|]
w: Ya-'a-se sha-lom ya-'a-se sha-lom sha-*lom 'al-ey-nu v-'al kol yis-ra-el.

%%sep 1 1 500
%%sep 1 1 500

